key-arrow-right.svg

<svg fill="currentColor" viewBox="0 0 24 24"><path d="M11.7 6c-.6-1.8-2.3-3-4.2-3C5 3 3 5 3 7.5S5 12 7.5 12c2 0 3.6-1.2 4.2-3H15v3h3V9h3V6zM7.5 9C6.7 9 6 8.3 6 7.5S6.7 6 7.5 6 9 6.7 9 7.5 8.3 9 7.5 9M13 21v-2H8v-2h5v-2l3 3z"/></svg>

<svg  viewBox="0 0 24 24" fill="currentColor"><path  d="M11.7 6C11.1 4.2 9.4 3 7.5 3C5 3 3 5 3 7.5S5 12 7.5 12C9.5 12 11.1 10.8 11.7 9H15V12H18V9H21V6H11.7M7.5 9C6.7 9 6 8.3 6 7.5S6.7 6 7.5 6 9 6.7 9 7.5 8.3 9 7.5 9M13 21V19H8V17H13V15L16 18L13 21"/></svg>
